X: 199
T:Richmond Cotillion
M:4/4
K:D
"D"[D2A2] f2 fgfe|d2F2A3d|"A"c2B2A2B2|ABAG FGFE|
"D"[D2A2] f2 fgfe|d2F2A3d|"A"c2A2BAcA|"D"d8:|
K:A
|:"A"efed cdef|a2c2e4|"E"B2c2d2B2|"A"cdcB ABcd|
"A"efed cdef|a2c2e3a|"E"g2e2fege|"A"|1 a8:|2 "A"a4"A7"=g4:|
